!!!COM: Hugo Wolf
!!!CNT: Deutscher
!!!TXO: Deutsche 
!!!OTL: Frech und Froh I
!!!ODT: 1888/11/14
!!!ONM: No. 16
!!!LYR: Johann Wolfgang von Goethe
!!!ENC: Brian Bice
!!!YOR: 45 Songs on Poems of Goethe and Eichendorff, Dover Publications, 1995
!!NB: Vocal melody and text only encoded.
**kern	**silbe
*clefG2	*
*k[b-]	*
*M4/4	*
=1	=1
2r	.
4r	.
8r	.
{8dd	{Mit
=2	=2
8g	Ma2d-
8g	-chen
8g	sich
8cc	ver-
(8cc	-tra-
8a)	|
4g	-gen,
=3	=3
4r	.
8r	.
8cc	mit
[2ff	Ma2n-
=4	=4
8ff]	|
8dd	-nern
8bn	rum-
8ee	-ge-
4ee	-schla-
4a}	-gen,}
=5	=5
4r	.
{4dd	{und
4.g	mehr
8g	Kre-
=6	=6
4dd	-dit
4dd	als
2ff	Geld:
=7	=7
4r	.
2ff	so
[4ff	kommt
=8	=8
8ff]	|
8ee	man
8dd	durch
8ee	die
4ff}	Welt.}
4r	.
=9	=9
4r	.
8r	.
{8e	{Mit
(2a	vie-
=10	=10
8g#)	|
8a	-lem
8bn	la2sst
8dd	sich
4cc	schmaus-
4bn	-en,
=11	=11
4r	.
8r	.
8a	mit
[2dd	we-
=12	=12
8dd]	|
8cc	-nig
8bn	la2sst
8a	sich
4cc	hau-
4bn}	-sen;}
=13	=13
4r	.
{4bn	{dass
4.bn	we-
8ee	-nig
=14	=14
4ff	vie-
4ff	-les
2bn	sei,
=15	=15
4r	.
[4ff#	schafft
8ff#]	|
8ee	|
8cc#	nur
8a	die
=16	=16
(8f#	Lust
4cc#)	|
8bn	her-
4a}	-bei.}
4r	.
=17	=17
2r	.
4r	.
8r	.
{8dd	{Will
=18	=18
8dd	sie
8gg	sich
8gg	night
8cc	be-
(8cc	-que-
8a)	|
4g	-men,
=19	=19
8r	.
8cc	so
[4ff	mu2sst
8ff]	|
8ff	ihrs
[4ff	e-
=20	=20
8ff]	|
8dd	|
8bn	-ben
8ee	|
4ee	neh-
4a}	-men.}
=21	=21
2r	.
{4a	{Will
8a	ei-
8a	-ner
=22	=22
4b-	nicht
4b-	vom
2ee	Ort,
=23	=23
2r	.
2ff	so
=24	=24
8ff	jagt
8ee	ihn
8dd	gra-
8ee	-de
4ff}	fort.}
4r	.
=25	=25
4r	.
{2dd	{Lasst
[4dd	al-
=26	=26
8dd]	|
8cc	-le
8bn	nur
8a	miss-
4a	-go2n-
4g#	-nen,
=27	=27
4r	.
[4b-	was
8b-]	|
4b-	sie
8b-	nicht
=28	=28
4.gg	neh-
8ff	-men
4ff	ko2n-
4ee}	-nen,}
=29	=29
4r	.
{4cc	{und
4.cc	seid
8cc	von
=30	=30
4dd	Her-
4dd#	-zen
2ee	froh;
=31	=31
4r	.
2ff#	das
8ee	ist
8cc#	das
=32	=32
4f#	A
4g#	und
4a}	O.}
4r	.
=34	=34
8r	.
{8cc	{So
[4cc	fah-
8cc]	|
8cc	-ret
[4cc	fort
=35	=35
4.cc]	|
8cc	zu
4dd	dich-
4cc	-ten,
=36	=36
4r	.
2cc	euch
8cc	nach
8cc	der
=37	=37
4.ff	Welt
8ee	zu
4ee	rich-
4a}	-ten.}
=38	=38
4r	.
{4dd	{Be-
4.g	-denkt
8g	in
=39	=39
4dd	Wohl
4dd	und
[2ee	Weh
=40	=40
4ee]	|
4ee	dies
8f	gold-
8g	|
8f	-ne
8g	|
=41	=41
4a	A
4b	B
2cc}	C,}
=42	=42
4r	.
{4ee-	{dies
8dd	gold-
8ff	|
8een	-ne
8dd	|
=43	=43
4cc	A
4ee	B
4ff}	C.}
4r	.
*-	*-
